X:148
T:score23
L:1/8
Q:1/4=96
M:4/4
I:linebreak $
K:C
 (c4 G3 G | G4-) G(EFG | A2 B2 c2 d2 | e2) (f2- fedc |$ d4 A3 B | c4-) c(Bcd | edef g2 fe | %7
 dcde f2 ed | cBcd e2 dc |$ BdcB AcBA | G2) z4 z2 |] %11
